X: 9
T: Speed The Plough
R: reel
M: 4/4
L: 1/8
K: Gmaj
dB|G3B dB~B2|gGfG eGdB|cBAc BAGB|Ad~d2 dedB|
GFGB dB~B2|dgfg egdB|cBAc BAGB|ADFA G2:|
Bd|~g2fa gd ((3Bcd)|gGfG eGdB|c2Ac BAGB|Ad~d2 defd|
gafa gd ((3Bcd) |~g2fg egdB|cBAc BAGB|ADFA G2:||


Tune 1191	Setting 14470

